X: 1
T: RICKER'S -- HORNPIPE
B: Ryan's Mammoth Collection of Fiddle Tunes
R: hornpipe
M: C|
L: 1/8
Z: Contributed 20000522193003 by John Chambers jchambers:casc.com
K: D
vfg \
| afaf d2(ef) | ec"4"ec A2(GF) | GABc defg | ecAc e2(fg) |
| afaf d2(ef) | ec"4"ec A2(GF) | Ggbg fdec | d2d2d2 :|
|: (ude) \
| fd"4"ec B2(ga) | b2e2 e2(cd) | ecdB A2(fg) | a2d2 d2A2 |
| BcdB AFAF | BcdB AFAF | Ggbg fdec | d2d2d2 :|
